tela-icon-theme/src/scalable/apps/ghostwriter.svg

<svg width="64" height="64" version="1.1" viewBox="0 0 64 64" xmlns="http://www.w3.org/2000/svg">
 <g transform="matrix(1.1739 0 0 1.1739 3.8261 3.8261)">
  <path d="m24 1c12.703 0 23 10.297 23 23s-10.297 23-23 23-23-10.297-23-23 10.297-23 23-23z" fill="#e85656"/>
  <path d="m24 11a13 13 0 0 0-10.275 5.0898 3 3 0 0 0-0.72461-0.089844 3 3 0 0 0-3 3 3 3 0 0 0 1.2852 2.4531 13 13 0 0 0-0.28516 2.5469 13 13 0 0 0 13 13c6 0 11.398-1 13-2-2.862-0.924-1.8501-4-0.99609-6l-0.03906 0.02539a13 13 0 0 0 1.0352-5.0254 13 13 0 0 0-0.25586-2.5684 3 3 0 0 0 1.2559-2.4316 3 3 0 0 0-3-3 3 3 0 0 0-0.68945 0.087891 13 13 0 0 0-10.311-5.0879z" fill="#ffffff"/>
  <ellipse transform="matrix(.95289 -.30331 .22003 .97549 0 0)" cx="22.999" cy="27.653" rx="3.01" ry="3.992" fill="#303030"/>
  <ellipse transform="matrix(-.95289 -.30331 -.22003 .97549 0 0)" cx="-24" cy="13.04" rx="3.01" ry="3.992" fill="#303030"/>
 </g>
</svg>

<svg xmlns="http://www.w3.org/2000/svg" width="64" height="64"><g transform="translate(3.826 3.826) scale(1.1739)"><path fill="#e85656" d="M24 1c12.703 0 23 10.297 23 23S36.703 47 24 47 1 36.703 1 24 11.297 1 24 1z"/><path fill="#fff" d="M24 11a13 13 0 0 0-10.275 5.09A3 3 0 0 0 13 16a3 3 0 0 0-3 3 3 3 0 0 0 1.286 2.453A13 13 0 0 0 11 24a13 13 0 0 0 13 13c6 0 11.398-1 13-2-2.862-.924-1.85-4-.996-6l-.039.025A13 13 0 0 0 37 24a13 13 0 0 0-.255-2.568A3 3 0 0 0 38 19a3 3 0 0 0-3-3 3 3 0 0 0-.69.088A13 13 0 0 0 24.001 11z"/><ellipse cx="22.999" cy="27.653" fill="#303030" rx="3.01" ry="3.992" transform="matrix(.95289 -.30331 .22003 .97549 0 0)"/><ellipse cx="-24" cy="13.04" fill="#303030" rx="3.01" ry="3.992" transform="matrix(-.95289 -.30331 -.22003 .97549 0 0)"/></g></svg>
